X:1
T:G minor           Daniel Belknap, 1806
T:Philip Doddridge, 1755        86. 86. (C. M.)
T:Solon
T:Treble-Tenor-Bass transcribed from The Village Compilation , 1806 ; Counter part by B. C. Johnston, 2017.
%%score [ 1 2 3 4 ]
L:1/8
Q:1/4=90
M:2/4
K:Bb
V:1 treble nm="Tr." snm="Tr."
V:2 treble nm="C." snm="C."
V:3 treble-8 nm="T." snm="T."
V:4 bass nm="B." snm="B."
V:1
 d2 | G2 B2 | c2 B2 | A>B c>B | A3 B | c2 B2 | GA Bc | d4 | z2 A2 | B2 GB | c3 B/A/ | G2 c2 | %12
 d2 d2 | A2 d2 | Bc/A/ G^F | G4 |: z2 ^F2 | G2 d2 | c3 d | d2 c2 | B2 G2 | d2 dB | A2 c2 | B4 | %24
 z2 B2 | G3 d | d2 B2 | G2 ^FG | A2 d2 | Bc BA | G2 ^F2 | G4 :| %32
V:2
"^1. In–dul–gent God! with pity–ing   eyes  The  sons  of  men  sur  –   vey.        And  see  how  youth–ful    sin – ners  sport  In    a  de –  struc   –   tive         way!           Ten" G2 | %1
 B2 d2 | c2 d2 | c>B A>G | F3 B | c2 B2 | dc B2 | A4 | z2 A2 | B2 d2 | c3 B/A/ | B2 c2 | A2 B2 | %13
 c2 d2 | dc BA | G4 |: z2 A2 | %17
"^1. thousand   dan – gers   lurk  a–round,  To  bear  them    to  the    tomb:       Each   in   an   hour  may plunge them down  Where  hope   can       ne – ver    come." G2 B2 | %18
 A3 d | B2 A2 | B2 B2 | G2 Bd | c2 A2 | B4 | z2 G2 | c3 A | B2 B2 | d2 cB | A2 B2 | GA BA | %30
 G2 ^F2 | G4 :| %32
V:3
"^2. Reduce, O Lord, their wandering minds,  Amused  with  airy  dreams,     That  heavenly   wisdom      may  di –spel   Their  vi – sio – na    –   ry     schemes.         With" G2 | %1
 B2 d2 | e2 d2 | c>B A>B | c3 d | g2 B2 | dc B2 | A4 | z2 d2 | e2 d2 | g3 d | d2 cB | A2 B2 | %13
 c2 B2 | de/c/ BA | G4 |: z2 A2 | %17
"^2. ho – ly       cau–tion  may they walk, And  be   thy  word  their  guide;       Till   each,  the    de – sert  safe  –  ly     passed,  On   Zi   –   on's       hill     a   –   bide." B2 cB | %18
 A3 G | B2 c2 | d2 B2 | G2 B2 | c2 A2 | B4 | z2 G2 | c3 A | B2 G2 | d2 cB | c2 B2 | de cd | B2 A2 | %31
 G4 :| %32
V:4
 G,2 | G,2 G,2 | G,2 D,2 | F,2 F,2 | F,3 D, | C,2 G,2 | B,A, G,2 | D,4 | z2 D,2 | G,2 D,2 | %10
 C,3 D, | B,2 A,G, | D,2 B,2 | F,2 G,2 | G,2 D,2 | [G,,G,]4 |: z2 D,2 | G,2 D,2 | F,3 D, | %19
 G,2 A,2 | B,2 D,2 | %21
"^___________________________________________________\nEdited by B. C. Johnston, 2017\n   Top staff (labeled \"Air\") and second staff exchanged." G,2 D,2 | %22
 F,2 F,,2 | B,,4 | z2 G,2 | C,3 D, | G,2 G,2 | B,2 A,G, | F,2 D,2 | G,2 C,2 | D,2 D,2 | G,,4 :| %32

